{ "compressionlevel":-1,
 "height":9,
 "infinite":false,
 "layers":[
        {
         "data":[0, 0, 0, 0, 0, 0, 0, 0, 0, 0, 0, 0, 0, 0, 0, 0, 0,
            0, 0, 0, 0, 0, 0, 0, 0, 0, 0, 0, 0, 0, 0, 11, 0, 0,
            0, 0, 11, 11, 0, 11, 11, 11, 0, 11, 11, 0, 0, 0, 11, 11, 0,
            0, 0, 11, 0, 0, 0, 11, 0, 0, 0, 11, 0, 0, 0, 11, 0, 0,
            0, 0, 0, 0, 0, 0, 0, 0, 0, 0, 0, 0, 0, 0, 0, 0, 0,
            0, 0, 11, 0, 0, 0, 11, 0, 0, 0, 11, 0, 0, 0, 11, 0, 0,
            0, 11, 11, 0, 0, 0, 11, 11, 0, 11, 11, 11, 0, 11, 11, 0, 0,
            0, 0, 11, 0, 0, 0, 0, 0, 0, 0, 0, 0, 0, 0, 0, 0, 0,
            0, 0, 0, 0, 0, 0, 0, 0, 0, 0, 0, 0, 0, 0, 0, 0, 0],
         "height":9,
         "id":1,
         "name":"input_RoundedStructureMask",
         "opacity":1,
         "type":"tilelayer",
         "visible":true,
         "width":17,
         "x":0,
         "y":0
        }, 
        {
         "data":[0, 0, 0, 0, 0, 0, 0, 0, 0, 0, 0, 0, 0, 0, 0, 0, 0,
            0, 0, 11, 0, 0, 0, 11, 0, 0, 0, 11, 0, 0, 0, 0, 0, 0,
            0, 11, 0, 0, 0, 0, 0, 0, 0, 0, 0, 11, 0, 11, 0, 0, 0,
            0, 0, 0, 0, 0, 0, 0, 0, 0, 0, 0, 0, 0, 0, 0, 0, 0,
            0, 0, 0, 0, 0, 0, 0, 0, 0, 0, 0, 0, 0, 0, 0, 0, 0,
            0, 0, 0, 0, 0, 0, 0, 0, 0, 0, 0, 0, 0, 0, 0, 0, 0,
            0, 0, 0, 11, 0, 11, 0, 0, 0, 0, 0, 0, 0, 0, 0, 11, 0,
            0, 0, 0, 0, 0, 0, 11, 0, 0, 0, 11, 0, 0, 0, 11, 0, 0,
            0, 0, 0, 0, 0, 0, 0, 0, 0, 0, 0, 0, 0, 0, 0, 0, 0],
         "height":9,
         "id":2,
         "name":"inputnot_RoundedStructureMask",
         "opacity":1,
         "type":"tilelayer",
         "visible":false,
         "width":17,
         "x":0,
         "y":0
        }, 
        {
         "data":[0, 0, 0, 0, 0, 0, 0, 0, 0, 0, 0, 0, 0, 0, 0, 0, 0,
            0, 0, 0, 0, 0, 0, 0, 0, 0, 0, 0, 0, 0, 0, 0, 0, 0,
            0, 0, 61, 0, 0, 0, 62, 0, 0, 0, 63, 0, 0, 0, 70, 0, 0,
            0, 0, 0, 0, 0, 0, 0, 0, 0, 0, 0, 0, 0, 0, 0, 0, 0,
            0, 0, 0, 0, 0, 0, 0, 0, 0, 0, 0, 0, 0, 0, 0, 0, 0,
            0, 0, 0, 0, 0, 0, 0, 0, 0, 0, 0, 0, 0, 0, 0, 0, 0,
            0, 0, 72, 0, 0, 0, 79, 0, 0, 0, 80, 0, 0, 0, 81, 0, 0,
            0, 0, 0, 0, 0, 0, 0, 0, 0, 0, 0, 0, 0, 0, 0, 0, 0,
            0, 0, 0, 0, 0, 0, 0, 0, 0, 0, 0, 0, 0, 0, 0, 0, 0],
         "height":9,
         "id":3,
         "name":"output_Midground1",
         "opacity":1,
         "type":"tilelayer",
         "visible":false,
         "width":17,
         "x":0,
         "y":0
        }],
 "nextlayerid":4,
 "nextobjectid":1,
 "orientation":"orthogonal",
 "properties":[
        {
         "name":"AutomappingRadius",
         "type":"int",
         "value":1
        }],
 "renderorder":"right-down",
 "tiledversion":"1.12.2",
 "tileheight":32,
 "tilesets":[
        {
         "firstgid":1,
         "source":"..\/tilesets\/foozle-lab-structure.tsj"
        }],
 "tilewidth":32,
 "type":"map",
 "version":"1.11",
 "width":17
}