{
 "compressionlevel":-1,
 "height":11,
 "infinite":false,
 "layers":[
        {
         "data":[
                 0,0,0,0,0,0,0,0,0,0,0,
                 0,11,11,0,11,11,11,0,11,11,0,
                 0,11,0,0,0,0,0,0,0,11,0,
                 0,0,0,0,0,0,0,0,0,0,0,
                 0,11,0,0,0,11,0,0,0,11,0,
                 0,11,11,0,11,11,11,0,11,11,0,
                 0,11,0,0,0,11,0,0,0,11,0,
                 0,0,0,0,0,0,0,0,0,0,0,
                 0,11,0,0,0,11,0,0,0,11,0,
                 0,11,11,0,11,11,11,0,11,11,0,
                 0,0,0,0,0,0,0,0,0,0,0],
         "height":11,
         "id":1,
         "name":"input_StructureMask",
         "opacity":1,
         "type":"tilelayer",
         "visible":true,
         "width":11,
         "x":0,
         "y":0
        },
        {
         "data":[
                 0,11,0,0,0,11,0,0,0,11,0,
                 11,0,0,0,0,0,0,0,0,0,11,
                 0,0,0,0,0,0,0,0,0,0,0,
                 0,0,0,0,0,0,0,0,0,0,0,
                 0,0,0,0,0,0,0,0,0,0,0,
                 11,0,0,0,0,0,0,0,0,0,11,
                 0,0,0,0,0,0,0,0,0,0,0,
                 0,0,0,0,0,0,0,0,0,0,0,
                 0,0,0,0,0,0,0,0,0,0,0,
                 11,0,0,0,0,0,0,0,0,0,11,
                 0,11,0,0,0,11,0,0,0,11,0],
         "height":11,
         "id":2,
         "name":"inputnot_StructureMask",
         "opacity":1,
         "type":"tilelayer",
         "visible":true,
         "width":11,
         "x":0,
         "y":0
        },
        {
         "data":[
                 0,0,0,0,0,0,0,0,0,0,0,
                 0,1,0,0,0,2,0,0,0,3,0,
                 0,0,0,0,0,0,0,0,0,0,0,
                 0,0,0,0,0,0,0,0,0,0,0,
                 0,0,0,0,0,0,0,0,0,0,0,
                 0,10,0,0,0,11,0,0,0,12,0,
                 0,0,0,0,0,0,0,0,0,0,0,
                 0,0,0,0,0,0,0,0,0,0,0,
                 0,0,0,0,0,0,0,0,0,0,0,
                 0,19,0,0,0,20,0,0,0,21,0,
                 0,0,0,0,0,0,0,0,0,0,0],
         "height":11,
         "id":3,
         "name":"output_Midground1",
         "opacity":1,
         "type":"tilelayer",
         "visible":true,
         "width":11,
         "x":0,
         "y":0
        }],
 "nextlayerid":4,
 "nextobjectid":1,
 "orientation":"orthogonal",
 "properties":[
        {
         "name":"AutomappingRadius",
         "type":"int",
         "value":1
        }],
 "renderorder":"right-down",
 "tiledversion":"1.12.2",
 "tileheight":32,
 "tilesets":[
        {
         "firstgid":1,
         "source":"..\\tilesets\\foozle-lab-structure.tsj"
        }],
 "tilewidth":32,
 "type":"map",
 "version":"1.11",
 "width":11
}
