{
  "compressionlevel": -1,
  "height": 5,
  "infinite": false,
  "layers": [
    {
      "data": [86, 86, 86, 86, 86, 86, 86, 86, 86, 86, 86, 86, 86, 86, 86, 86, 86, 86, 86, 86, 86, 86, 86, 86, 86, 86, 86, 86, 86, 86, 86, 86, 86, 86, 86, 86, 86, 86, 86, 86, 86, 86, 86, 86, 86, 86, 86, 86, 86, 86],
      "height": 5,
      "id": 1,
      "name": "Background",
      "opacity": 1,
      "type": "tilelayer",
      "visible": true,
      "width": 10,
      "x": 0,
      "y": 0
    },
    {
      "data": [0, 0, 0, 0, 0, 0, 0, 0, 0, 0, 333, 333, 333, 333, 333, 0, 0, 0, 0, 0, 0, 333, 333, 333, 333, 333, 0, 0, 0, 0, 0, 0, 0, 0, 333, 333, 333, 333, 333, 0, 0, 0, 0, 0, 0, 0, 0, 0, 0, 0],
      "height": 5,
      "id": 2,
      "name": "Foreground",
      "opacity": 1,
      "type": "tilelayer",
      "visible": true,
      "width": 10,
      "x": 0,
      "y": 0
    }
  ],
  "nextlayerid": 3,
  "nextobjectid": 1,
  "orientation": "orthogonal",
  "renderorder": "right-down",
  "tiledversion": "1.11.0",
  "tileheight": 32,
  "tilesets": [
    { "firstgid": 1, "source": "tilesets/palm-tree-island-terrain.tsj" },
    { "firstgid": 86, "source": "tilesets/pirate-ship-terrain.tsj" },
    { "firstgid": 333, "source": "tilesets/pirate-ship-platforms.tsj" }
  ],
  "tilewidth": 32,
  "type": "map",
  "version": "1.10",
  "width": 10
}
